X:1
T:[ID 8-85b]
T:[ID 8-85b]
T:Bezeichnung standardisiert: Schwabisch Schwabisch
T:Urheber unbekannt Datum in der hier transkribierten schriftlichen Quelle: 1792
C:Urheber unbekannt
C:Datum in der hier transkribierten schriftlichen Quelle: 1792
L:1/8
M:3/8
K:D
V:1 treble 
V:1
 A | d2 d | e2 e | fef | a2 z | g2 g | f2 f | ede | d3 :: g2 g | f2 f | gfg | a3 | gfe | fed | %15
 edc | d3 :| %17

